Website/dist/img/badge.svg

<svg xmlns="http://www.w3.org/2000/svg" viewBox="0 0 595.3 841.9" enable-background="new 0 0 595.3 841.9"><path d="M258.9 309.6c6 2.9 12.4 5.1 18.9 6.6l1.4-6.4c-6-1.4-12-3.4-17.5-6.1l-2.8 5.9zM297.4 145.7v-6.6c-6.7 0-13.4.8-19.9 2.3l1.5 6.4c5.9-1.4 12.1-2.1 18.4-2.1zM232.8 280.6l-5.1 4.1c4.2 5.2 9 10 14.2 14.2l4.1-5.1c-4.9-3.9-9.3-8.3-13.2-13.2zM297.7 311.8v6.6c6.7 0 13.4-.8 19.9-2.3l-1.5-6.4c-5.9 1.4-12.1 2.1-18.4 2.1zM261.4 154l-2.9-5.9c-6 2.9-11.7 6.5-16.9 10.7l4.1 5.1c4.8-3.8 10.1-7.2 15.7-9.9zM333.7 303.6l2.9 5.9c6-2.9 11.7-6.5 17-10.7l-4.1-5.1c-4.9 3.8-10.2 7.2-15.8 9.9zM232.6 177.1l-5.1-4.1c-4.2 5.3-7.8 11-10.6 17l5.9 2.8c2.6-5.5 5.9-10.8 9.8-15.7zM216.6 210.4l-6.4-1.4c-1.4 6.4-2.2 13.1-2.2 19.7v.2l6.6-.2c0-6.1.7-12.3 2-18.3zM210.3 248.9c1.5 6.5 3.7 12.9 6.6 18.9l5.9-2.9c-2.7-5.6-4.8-11.5-6.2-17.5l-6.3 1.5zM297.6 102.4c-69.8 0-126.3 56.6-126.3 126.3 0 69.8 56.6 126.3 126.3 126.3 69.8 0 126.3-56.6 126.3-126.3s-56.5-126.3-126.3-126.3zm0 234c-59.5 0-107.7-48.2-107.7-107.7S238.1 121 297.6 121s107.7 48.2 107.7 107.7-48.2 107.7-107.7 107.7zM336.3 147.9c-6-2.9-12.4-5.1-19-6.6l-1.4 6.4c6 1.3 12 3.4 17.6 6.1l2.8-5.9zM353.3 158.5l-4.1 5.1c4.9 3.8 9.3 8.3 13.2 13.1l5.1-4.1c-4.2-5.2-9-10-14.2-14.1zM362.6 280.5l5.1 4.1c4.2-5.2 7.8-10.9 10.7-17l-5.9-2.9c-2.7 5.7-6 11-9.9 15.8zM378.6 247.2l6.4 1.5c1.5-6.5 2.2-13.2 2.2-19.9v-.4l-6.6.4c.1 6.2-.6 12.4-2 18.4zM378.6 210l6.4-1.5c-1.5-6.5-3.8-12.9-6.7-18.9l-5.9 2.9c2.7 5.5 4.8 11.4 6.2 17.5z" fill="none"/><path d="M467.6 244c-9.7-9.1-9.7-24 0-33.1 9.7-9.1 7.6-20.8-4.6-26.1-12.2-5.2-17.3-19.2-11.3-31.1 6-11.8 0-22.2-13.2-22.9-13.3-.8-22.8-12.2-21.3-25.3 1.6-13.2-7.6-20.8-20.3-17-12.7 3.8-25.6-3.6-28.6-16.5s-14.2-17-24.9-9.1c-10.6 7.9-25.3 5.3-32.6-5.7-7.3-11.1-19.2-11.1-26.5 0-7.3 11.1-21.9 13.7-32.6 5.7C241.2 55 230 59.1 227 72c-3.1 12.9-15.9 20.4-28.6 16.5-12.7-3.8-21.8 3.8-20.3 17 1.6 13.2-8 24.6-21.3 25.3-13.3.8-19.2 11.1-13.2 22.9 6 11.8.9 25.8-11.3 31.1-12.2 5.2-14.3 17-4.6 26.1 9.7 9.1 9.7 24 0 33.1s-7.6 20.8 4.6 26.1c12.2 5.3 17.3 19.2 11.3 31.1-6 11.8 0 22.2 13.2 22.9 13.2.8 22.8 12.1 21.3 25.3-1.6 13.2 7.6 20.8 20.3 17S224 370 227 382.9s14.2 17 24.9 9c10.6-7.9 25.3-5.3 32.6 5.7 7.3 11.1 19.2 11.1 26.5 0 7.3-11.1 21.9-13.7 32.6-5.7 10.6 7.9 21.8 3.9 24.9-9 3-12.9 15.9-20.4 28.6-16.5 12.7 3.8 21.8-3.8 20.3-17-1.6-13.2 8-24.6 21.3-25.3 13.2-.8 19.2-11.1 13.2-22.9-6-11.8-.9-25.8 11.3-31.1 12-5.3 14.1-17 4.4-26.1zm-170 111.1c-69.8 0-126.3-56.6-126.3-126.3 0-69.8 56.6-126.3 126.3-126.3 69.8 0 126.3 56.6 126.3 126.3s-56.5 126.3-126.3 126.3zM297.6 121.1c-59.5 0-107.7 48.2-107.7 107.7s48.2 107.7 107.7 107.7 107.7-48.2 107.7-107.7-48.2-107.7-107.7-107.7zm19.7 20.2c6.5 1.5 12.9 3.7 19 6.6l-2.8 5.9c-5.6-2.7-11.5-4.7-17.6-6.1l1.4-6.4zm-19.9-2.2v6.6c-6.2 0-12.4.7-18.5 2.1l-1.5-6.4c6.5-1.5 13.2-2.2 20-2.3zm-38.9 9l2.9 5.9c-5.6 2.7-10.9 6-15.7 9.9l-4.1-5.1c5.2-4.2 10.9-7.8 16.9-10.7zm-31.1 25l5.1 4.1c-3.9 4.9-7.2 10.2-9.9 15.8l-5.9-2.8c3-6.2 6.6-11.9 10.7-17.1zM208 228.8c0-6.7.7-13.3 2.2-19.7l6.4 1.4c-1.4 6-2 12.1-2 18.3l-6.6.2v-.2zm8.9 39c-2.9-6-5.2-12.4-6.6-18.9l6.4-1.5c1.4 6 3.5 11.9 6.2 17.5l-6 2.9zm25 31.1c-5.2-4.2-10-8.9-14.2-14.2l5.1-4.1c3.9 4.8 8.3 9.3 13.2 13.1l-4.1 5.2zm35.9 17.3c-6.5-1.5-12.9-3.7-18.9-6.6l2.8-5.9c5.6 2.7 11.5 4.8 17.5 6.1l-1.4 6.4zm10.8-56.3l-6.1 10.1-34-32.8 13.1-13.6 17.4 16.7c10.9-15.6 34.5-45.3 61.2-55.4l6.7 17.6c-30.1 11.5-58 56.9-58.3 57.4zm9.1 58.5v-6.6c6.2 0 12.5-.7 18.5-2.1l1.5 6.4c-6.5 1.5-13.2 2.3-20 2.3zm38.9-8.9l-2.9-5.9c5.6-2.7 10.9-6 15.7-9.9l4.1 5.1c-5.2 4.2-10.9 7.8-16.9 10.7zm12.6-145.9l4.1-5.1c5.2 4.2 10 8.9 14.2 14.1l-5.1 4.1c-3.9-4.8-8.3-9.2-13.2-13.1zm18.5 121l-5.1-4.1c3.9-4.8 7.2-10.1 9.9-15.7l5.9 2.9c-2.9 6-6.5 11.7-10.7 16.9zm19.6-55.8c0 6.7-.8 13.4-2.2 19.9l-6.4-1.5c1.4-6 2.1-12.2 2.1-18.5l6.6-.4v.5zm-2.4-20.3l-6.4 1.5c-1.4-6.1-3.5-11.9-6.2-17.5l5.9-2.9c3 6 5.2 12.3 6.7 18.9zM220.6 396.9c-3.2-13.7-16.6-21.6-30.1-18.2l-56.7 231.9 47.5-9.9 46.7-192c-3.4-2.4-6.1-6.3-7.4-11.8zM312.1 413c-7.9 12.1-20.9 12.1-28.9 0-.2-.3-.4-.5-.6-.8l-49.1 202.4 37.9 29.6L330.6 402c-7.2.6-14.1 4.3-18.5 11zM247.7 406.8c-4.6 3.4-9.2 4.7-13.4 4.3l-45.6 188 19.6-4.1 19.4 15.1L277 406.6c-8.5-6.3-20.2-6.6-29.3.2zM374.7 396.9c-3.3 14.1-15.5 18.5-27.1 9.9-2.2-1.6-4.6-2.7-7-3.6l-37.8 154.7 21.1 86.3L387 595l74.4 15.6-56.7-231.9c-13.4-3.4-26.8 4.5-30 18.2z"/></svg>

<?xml version="1.0" encoding="utf-8"?>
<!-- Generator: Adobe Illustrator 18.1.1, SVG Export Plug-In . SVG Version: 6.00 Build 0)  -->
<svg version="1.1" id="Calque_1" xmlns="http://www.w3.org/2000/svg" xmlns:xlink="http://www.w3.org/1999/xlink" x="0px" y="0px"
	 viewBox="0 0 595.3 841.9" enable-background="new 0 0 595.3 841.9" xml:space="preserve">
<g>
	<path fill="none" d="M258.9,309.6c6,2.9,12.4,5.1,18.9,6.6l1.4-6.4c-6-1.4-12-3.4-17.5-6.1L258.9,309.6z"/>
	<path fill="none" d="M297.4,145.7l0-6.6c-6.7,0-13.4,0.8-19.9,2.3l1.5,6.4C284.9,146.4,291.1,145.7,297.4,145.7z"/>
	<path fill="none" d="M232.8,280.6l-5.1,4.1c4.2,5.2,9,10,14.2,14.2l4.1-5.1C241.1,289.9,236.7,285.5,232.8,280.6z"/>
	<path fill="none" d="M297.7,311.8l0,6.6c6.7,0,13.4-0.8,19.9-2.3l-1.5-6.4C310.2,311.1,304,311.8,297.7,311.8z"/>
	<path fill="none" d="M261.4,154l-2.9-5.9c-6,2.9-11.7,6.5-16.9,10.7l4.1,5.1C250.5,160.1,255.8,156.7,261.4,154z"/>
	<path fill="none" d="M333.7,303.6l2.9,5.9c6-2.9,11.7-6.5,17-10.7l-4.1-5.1C344.6,297.5,339.3,300.9,333.7,303.6z"/>
	<path fill="none" d="M232.6,177.1l-5.1-4.1c-4.2,5.3-7.8,11-10.6,17l5.9,2.8C225.4,187.3,228.7,182,232.6,177.1z"/>
	<path fill="none" d="M216.6,210.4l-6.4-1.4c-1.4,6.4-2.2,13.1-2.2,19.7l0,0.2l6.6-0.2C214.6,222.6,215.3,216.4,216.6,210.4z"/>
	<path fill="none" d="M210.3,248.9c1.5,6.5,3.7,12.9,6.6,18.9l5.9-2.9c-2.7-5.6-4.8-11.5-6.2-17.5L210.3,248.9z"/>
	<path fill="none" d="M297.6,102.4c-69.8,0-126.3,56.6-126.3,126.3c0,69.8,56.6,126.3,126.3,126.3c69.8,0,126.3-56.6,126.3-126.3
		S367.4,102.4,297.6,102.4z M297.6,336.4c-59.5,0-107.7-48.2-107.7-107.7c0-59.5,48.2-107.7,107.7-107.7
		c59.5,0,107.7,48.2,107.7,107.7C405.3,288.2,357.1,336.4,297.6,336.4z"/>
	<path fill="none" d="M336.3,147.9c-6-2.9-12.4-5.1-19-6.6l-1.4,6.4c6,1.3,12,3.4,17.6,6.1L336.3,147.9z"/>
	<path fill="none" d="M353.3,158.5l-4.1,5.1c4.9,3.8,9.3,8.3,13.2,13.1l5.1-4.1C363.3,167.4,358.5,162.6,353.3,158.5z"/>
	<path fill="none" d="M362.6,280.5l5.1,4.1c4.2-5.2,7.8-10.9,10.7-17l-5.9-2.9C369.8,270.4,366.5,275.7,362.6,280.5z"/>
	<path fill="none" d="M378.6,247.2l6.4,1.5c1.5-6.5,2.2-13.2,2.2-19.9h0v-0.4l-6.6,0.4C380.7,235,380,241.2,378.6,247.2z"/>
	<path fill="none" d="M378.6,210l6.4-1.5c-1.5-6.5-3.8-12.9-6.7-18.9l-5.9,2.9C375.1,198,377.2,203.9,378.6,210z"/>
	<path d="M467.6,244c-9.7-9.1-9.7-24,0-33.1c9.7-9.1,7.6-20.8-4.6-26.1c-12.2-5.2-17.3-19.2-11.3-31.1c6-11.8,0-22.2-13.2-22.9
		c-13.3-0.8-22.8-12.2-21.3-25.3c1.6-13.2-7.6-20.8-20.3-17c-12.7,3.8-25.6-3.6-28.6-16.5s-14.2-17-24.9-9.1
		c-10.6,7.9-25.3,5.3-32.6-5.7c-7.3-11.1-19.2-11.1-26.5,0c-7.3,11.1-21.9,13.7-32.6,5.7C241.2,55,230,59.1,227,72
		c-3.1,12.9-15.9,20.4-28.6,16.5c-12.7-3.8-21.8,3.8-20.3,17c1.6,13.2-8,24.6-21.3,25.3c-13.3,0.8-19.2,11.1-13.2,22.9
		c6,11.8,0.9,25.8-11.3,31.1c-12.2,5.2-14.3,17-4.6,26.1c9.7,9.1,9.7,24,0,33.1s-7.6,20.8,4.6,26.1c12.2,5.3,17.3,19.2,11.3,31.1
		c-6,11.8,0,22.2,13.2,22.9c13.2,0.8,22.8,12.1,21.3,25.3c-1.6,13.2,7.6,20.8,20.3,17s25.6,3.6,28.6,16.5c3,12.9,14.2,17,24.9,9
		c10.6-7.9,25.3-5.3,32.6,5.7c7.3,11.1,19.2,11.1,26.5,0c7.3-11.1,21.9-13.7,32.6-5.7c10.6,7.9,21.8,3.9,24.9-9
		c3-12.9,15.9-20.4,28.6-16.5c12.7,3.8,21.8-3.8,20.3-17c-1.6-13.2,8-24.6,21.3-25.3c13.2-0.8,19.2-11.1,13.2-22.9
		c-6-11.8-0.9-25.8,11.3-31.1C475.2,264.8,477.3,253.1,467.6,244z M297.6,355.1c-69.8,0-126.3-56.6-126.3-126.3
		c0-69.8,56.6-126.3,126.3-126.3c69.8,0,126.3,56.6,126.3,126.3S367.4,355.1,297.6,355.1z"/>
	<path d="M297.6,121.1c-59.5,0-107.7,48.2-107.7,107.7c0,59.5,48.2,107.7,107.7,107.7c59.5,0,107.7-48.2,107.7-107.7
		C405.3,169.3,357.1,121.1,297.6,121.1z M317.3,141.3c6.5,1.5,12.9,3.7,19,6.6l-2.8,5.9c-5.6-2.7-11.5-4.7-17.6-6.1L317.3,141.3z
		 M297.4,139.1l0,6.6c-6.2,0-12.4,0.7-18.5,2.1l-1.5-6.4C283.9,139.9,290.6,139.2,297.4,139.1z M258.5,148.1l2.9,5.9
		c-5.6,2.7-10.9,6-15.7,9.9l-4.1-5.1C246.8,154.6,252.5,151,258.5,148.1z M227.4,173.1l5.1,4.1c-3.9,4.9-7.2,10.2-9.9,15.8l-5.9-2.8
		C219.7,184,223.3,178.3,227.4,173.1z M208,228.8c0-6.7,0.7-13.3,2.2-19.7l6.4,1.4c-1.4,6-2,12.1-2,18.3l-6.6,0.2L208,228.8z
		 M216.9,267.8c-2.9-6-5.2-12.4-6.6-18.9l6.4-1.5c1.4,6,3.5,11.9,6.2,17.5L216.9,267.8z M241.9,298.9c-5.2-4.2-10-8.9-14.2-14.2
		l5.1-4.1c3.9,4.8,8.3,9.3,13.2,13.1L241.9,298.9z M277.8,316.2c-6.5-1.5-12.9-3.7-18.9-6.6l2.8-5.9c5.6,2.7,11.5,4.8,17.5,6.1
		L277.8,316.2z M288.6,259.9l-6.1,10.1l-34-32.8l13.1-13.6l17.4,16.7c10.9-15.6,34.5-45.3,61.2-55.4l6.7,17.6
		C316.8,214,288.9,259.4,288.6,259.9z M297.7,318.4l0-6.6c6.2,0,12.5-0.7,18.5-2.1l1.5,6.4C311.2,317.6,304.5,318.4,297.7,318.4z
		 M336.6,309.5l-2.9-5.9c5.6-2.7,10.9-6,15.7-9.9l4.1,5.1C348.3,303,342.6,306.6,336.6,309.5z M349.2,163.6l4.1-5.1
		c5.2,4.2,10,8.9,14.2,14.1l-5.1,4.1C358.5,171.9,354.1,167.5,349.2,163.6z M367.7,284.6l-5.1-4.1c3.9-4.8,7.2-10.1,9.9-15.7
		l5.9,2.9C375.5,273.7,371.9,279.4,367.7,284.6z M387.3,228.8L387.3,228.8c0,6.7-0.8,13.4-2.2,19.9l-6.4-1.5
		c1.4-6,2.1-12.2,2.1-18.5l6.6-0.4V228.8z M384.9,208.5l-6.4,1.5c-1.4-6.1-3.5-11.9-6.2-17.5l5.9-2.9
		C381.2,195.6,383.4,201.9,384.9,208.5z"/>
	<path d="M220.6,396.9c-3.2-13.7-16.6-21.6-30.1-18.2l-56.7,231.9l47.5-9.9L228,408.7C224.6,406.3,221.9,402.4,220.6,396.9z"/>
	<path d="M312.1,413c-7.9,12.1-20.9,12.1-28.9,0c-0.2-0.3-0.4-0.5-0.6-0.8l-49.1,202.4l37.9,29.6L330.6,402
		C323.4,402.6,316.5,406.3,312.1,413z"/>
	<path d="M247.7,406.8c-4.6,3.4-9.2,4.7-13.4,4.3l-45.6,188l19.6-4.1l19.4,15.1L277,406.6C268.5,400.3,256.8,400,247.7,406.8z"/>
	<path d="M374.7,396.9c-3.3,14.1-15.5,18.5-27.1,9.9c-2.2-1.6-4.6-2.7-7-3.6l-37.8,154.7l21.1,86.3L387,595l74.4,15.6l-56.7-231.9
		C391.3,375.3,377.9,383.2,374.7,396.9z"/>
</g>
</svg>
